src/images/circuits/miami.svg

<svg width="40" height="16" viewBox="0 0 40 16" fill="none" xmlns="http://www.w3.org/2000/svg">
<path d="M38.3256 2.27712L5.75197 1.00073C4.50125 0.951718 7.00268 3.39792 8.56606 3.34581C10.1295 3.29369 11.6407 1.99087 13.4126 1.93876C15.1844 1.88665 19.8746 5.16976 21.8549 6.21202C23.8351 7.25427 26.1272 8.67261 24.6689 9.02611C22.9492 9.44302 23.3661 10.5374 23.2619 12.0487C23.1577 13.5599 20.1872 13.8726 18.7281 13.8726C17.2689 13.8726 12.4224 10.7458 11.1196 10.1205C9.81677 9.49513 8.56606 11.2149 7.31535 11.2149C6.11223 11.2149 4.81393 9.49513 3.71956 9.49513C2.62519 9.49513 0.853343 11.0064 1.00968 12.0487C1.16602 13.0909 2.78153 13.0388 3.40688 12.9346C4.03224 12.8304 5.38718 13.4557 7.5238 13.5599C9.66043 13.6642 15.0802 13.5078 15.914 13.9768C16.7478 14.4459 20.9168 15.6445 25.0337 15.1233C28.059 14.7404 33.4555 11.8659 36.3609 10.1347C36.6853 9.94145 36.6804 9.46893 36.3753 9.2465C35.6708 8.7328 34.9167 8.01498 35.0394 7.46273C35.2479 6.52469 36.8113 6.9416 37.593 6.9416C38.1013 6.9416 38.5752 6.20702 38.8467 5.63352C38.945 5.42591 38.8671 5.18262 38.6778 5.05249L38.4805 4.91681C38.2949 4.78921 38.2175 4.55326 38.2915 4.34053L38.7783 2.941C38.8886 2.62385 38.6611 2.29027 38.3256 2.27712Z" stroke="#FF0000"/>
</svg>

<svg width="40" height="16" fill="none" xmlns="http://www.w3.org/2000/svg"><path d="M38.326 2.277 5.752 1.001c-1.25-.05 1.25 2.397 2.814 2.345 1.563-.052 3.075-1.355 4.847-1.407 1.771-.052 6.462 3.23 8.442 4.273 1.98 1.042 4.272 2.46 2.814 2.814-1.72.417-1.303 1.511-1.407 3.023-.104 1.51-3.075 1.824-4.534 1.824-1.46 0-6.306-3.127-7.608-3.752-1.303-.626-2.554 1.094-3.805 1.094-1.203 0-2.501-1.72-3.595-1.72-1.095 0-2.867 1.511-2.71 2.554.156 1.042 1.772.99 2.397.886.625-.105 1.98.52 4.117.625 2.136.104 7.556-.052 8.39.417.834.469 5.003 1.668 9.12 1.146 3.025-.383 8.422-3.257 11.327-4.988.324-.194.32-.666.014-.889-.704-.513-1.458-1.231-1.336-1.783.209-.938 1.772-.521 2.554-.521.508 0 .982-.735 1.254-1.308a.466.466 0 0 0-.17-.582l-.197-.135a.5.5 0 0 1-.188-.576l.486-1.4a.5.5 0 0 0-.452-.664Z" stroke="red"/></svg>
